img/gate/nand.svg

<svg xmlns="http://www.w3.org/2000/svg" version="1.0" viewBox="0 0 90 40">
 <g transform="translate(-5,-5)">
  <path d="m32 43v-36h18c25 0 25 36 0 36h-18" fill-rule="evenodd" fill="#fff"/>
  <circle cx="75.021553" cy="24.965517" r="3" fill="#fff"/>
  <g stroke="#000" fill="none">
   <path d="m79 25h16" stroke-width="2"/>
   <path d="m31 15h-26" stroke-width="2"/>
   <path d="m32 35h-27" stroke-width="1.99999988"/>
  </g>
  <path style="block-progression:tb;text-indent:0;text-decoration-line:none;text-transform:none" d="m30 5v1.4285714 37.1428576 1.428571h1.428571 19.047619c11.267908 0 20-9.000045 20-20s-8.732091-19.9999998-20-20h-19.047619-1.428571zm2.857143 2.8571429h15.238095 2.083333 0.267858 0.02976c9.760664 1e-7 16.666668 7.6399551 16.666668 17.1428571s-7.382195 17.142857-17.142857 17.142857h-17.142857v-34.2857141z"/>
  <circle cx="75" stroke="#000" cy="25" r="4" stroke-width="3" fill="none"/>
 </g>
</svg>

<?xml version="1.0" encoding="UTF-8" standalone="no"?>
<!-- Created with Inkscape (http://www.inkscape.org/) -->

<svg
   xmlns:dc="http://purl.org/dc/elements/1.1/"
   xmlns:cc="http://creativecommons.org/ns#"
   xmlns:rdf="http://www.w3.org/1999/02/22-rdf-syntax-ns#"
   xmlns:svg="http://www.w3.org/2000/svg"
   xmlns="http://www.w3.org/2000/svg"
   xmlns:sodipodi="http://sodipodi.sourceforge.net/DTD/sodipodi-0.dtd"
   xmlns:inkscape="http://www.inkscape.org/namespaces/inkscape"
   width="90"
   height="40"
   id="svg2"
   sodipodi:version="0.32"
   inkscape:version="0.91 r13725"
   version="1.0"
   sodipodi:docname="nand.svg"
   inkscape:output_extension="org.inkscape.output.svg.inkscape">
  <defs
     id="defs4">
    <inkscape:perspective
       sodipodi:type="inkscape:persp3d"
       inkscape:vp_x="0 : 15 : 1"
       inkscape:vp_y="0 : 1000 : 0"
       inkscape:vp_z="50 : 15 : 1"
       inkscape:persp3d-origin="25 : 10 : 1"
       id="perspective2714" />
    <inkscape:perspective
       sodipodi:type="inkscape:persp3d"
       inkscape:vp_x="0 : 0.5 : 1"
       inkscape:vp_y="0 : 1000 : 0"
       inkscape:vp_z="1 : 0.5 : 1"
       inkscape:persp3d-origin="0.5 : 0.33333333 : 1"
       id="perspective2806" />
    <inkscape:perspective
       id="perspective2819"
       inkscape:persp3d-origin="372.04724 : 350.78739 : 1"
       inkscape:vp_z="744.09448 : 526.18109 : 1"
       inkscape:vp_y="0 : 1000 : 0"
       inkscape:vp_x="0 : 526.18109 : 1"
       sodipodi:type="inkscape:persp3d" />
    <inkscape:perspective
       id="perspective2777"
       inkscape:persp3d-origin="75 : 40 : 1"
       inkscape:vp_z="150 : 60 : 1"
       inkscape:vp_y="0 : 1000 : 0"
       inkscape:vp_x="0 : 60 : 1"
       sodipodi:type="inkscape:persp3d" />
    <inkscape:perspective
       id="perspective3275"
       inkscape:persp3d-origin="50 : 33.333333 : 1"
       inkscape:vp_z="100 : 50 : 1"
       inkscape:vp_y="0 : 1000 : 0"
       inkscape:vp_x="0 : 50 : 1"
       sodipodi:type="inkscape:persp3d" />
    <inkscape:perspective
       id="perspective5533"
       inkscape:persp3d-origin="32 : 21.333333 : 1"
       inkscape:vp_z="64 : 32 : 1"
       inkscape:vp_y="0 : 1000 : 0"
       inkscape:vp_x="0 : 32 : 1"
       sodipodi:type="inkscape:persp3d" />
  </defs>
  <sodipodi:namedview
     id="base"
     pagecolor="#ffffff"
     bordercolor="#666666"
     borderopacity="1.0"
     inkscape:pageopacity="0.0"
     inkscape:pageshadow="2"
     inkscape:zoom="11.313709"
     inkscape:cx="47.927493"
     inkscape:cy="16.207486"
     inkscape:document-units="px"
     inkscape:current-layer="layer1"
     showgrid="true"
     inkscape:grid-bbox="true"
     inkscape:grid-points="true"
     gridtolerance="10000"
     inkscape:window-width="1358"
     inkscape:window-height="663"
     inkscape:window-x="0"
     inkscape:window-y="36"
     inkscape:snap-bbox="true"
     fit-margin-top="0"
     fit-margin-left="0"
     fit-margin-right="0"
     fit-margin-bottom="0"
     inkscape:window-maximized="0">
    <inkscape:grid
       id="GridFromPre046Settings"
       type="xygrid"
       originx="-5"
       originy="-5"
       spacingx="1px"
       spacingy="1px"
       color="#0000ff"
       empcolor="#0000ff"
       opacity="0.2"
       empopacity="0.4"
       empspacing="5"
       visible="true"
       enabled="true" />
  </sodipodi:namedview>
  <metadata
     id="metadata7">
    <rdf:RDF>
      <cc:Work
         rdf:about="">
        <dc:format>image/svg+xml</dc:format>
        <dc:type
           rdf:resource="http://purl.org/dc/dcmitype/StillImage" />
        <dc:title />
      </cc:Work>
    </rdf:RDF>
  </metadata>
  <g
     inkscape:label="Layer 1"
     inkscape:groupmode="layer"
     id="layer1"
     transform="translate(-5,-5)">
    <path
       style="fill:#ffffff;fill-opacity:1;fill-rule:evenodd;stroke:none;stroke-width:1px;stroke-linecap:butt;stroke-linejoin:miter;stroke-opacity:1"
       d="M 32,43 32,7 50,7 c 25,0 25,36 0,36 l -18,0"
       id="path6375"
       inkscape:connector-curvature="0"
       sodipodi:nodetypes="ccccc" />
    <circle
       style="opacity:1;fill:#ffffff;fill-opacity:1;stroke:none;stroke-width:0.5;stroke-linecap:round;stroke-linejoin:miter;stroke-miterlimit:10;stroke-dasharray:none;stroke-dashoffset:0;stroke-opacity:1"
       id="path4736"
       cx="75.021553"
       cy="24.965517"
       r="3" />
    <path
       style="fill:none;stroke:#000000;stroke-width:2;stroke-linecap:butt;stroke-linejoin:miter;stroke-opacity:1"
       d="m 79,25 c 12.8,0 16,0 16,0"
       id="path3059"
       sodipodi:nodetypes="cc"
       inkscape:connector-curvature="0" />
    <path
       style="fill:none;stroke:#000000;stroke-width:2;stroke-linecap:butt;stroke-linejoin:miter;stroke-opacity:1"
       d="M 31,15 5,15"
       id="path3061"
       inkscape:connector-curvature="0" />
    <path
       style="fill:none;stroke:#000000;stroke-width:1.99999988;stroke-linecap:butt;stroke-linejoin:miter;stroke-opacity:1"
       d="M 32,35 5,35"
       id="path3944"
       inkscape:connector-curvature="0" />
    <path
       style="font-style:normal;font-variant:normal;font-weight:normal;font-stretch:normal;font-size:medium;line-height:normal;font-family:'Bitstream Vera Sans';-inkscape-font-specification:'Bitstream Vera Sans';text-indent:0;text-align:start;text-decoration:none;text-decoration-line:none;letter-spacing:normal;word-spacing:normal;text-transform:none;direction:ltr;block-progression:tb;writing-mode:lr-tb;text-anchor:start;display:inline;overflow:visible;visibility:visible;fill:#000000;fill-opacity:1;stroke:none;stroke-width:3;marker:none;enable-background:accumulate"
       d="M 30,5 30,6.4285714 30,43.571429 30,45 l 1.428571,0 19.047619,0 c 11.267908,0 20,-9.000045 20,-20 0,-10.999955 -8.732091,-19.9999998 -20,-20 0,0 0,0 -19.047619,0 L 30,5 Z m 2.857143,2.8571429 c 7.977121,0 13.061225,0 15.238095,0 1.190476,0 1.785714,0 2.083333,0 0.14881,0 0.230656,0 0.267858,0 0.0186,0 0.02511,0 0.02976,0 C 60.236853,7.857143 67.142857,15.497098 67.142857,25 67.142857,34.502902 59.760662,42.142857 50,42.142857 l -17.142857,0 0,-34.2857141 z"
       id="path2884"
       sodipodi:nodetypes="ccccccsccccsssssccc"
       inkscape:connector-curvature="0" />
    <circle
       style="display:inline;overflow:visible;visibility:visible;fill:none;fill-opacity:1;stroke:#000000;stroke-width:3;stroke-linejoin:miter;stroke-opacity:1;marker:none;enable-background:accumulate"
       id="path4008"
       cx="75"
       cy="25"
       r="4" />
  </g>
</svg>
